X:19021
T:She's Sweetest When She's Naked
R:Minuet
C:Trad.
O:Scotland, Perth 1768
Z:Paul Hardy's Annex Tunebook 2015 (see www.paulhardy.net). Creative Commons cc by-nc-sa licenced.
M:3/4
L:1/8
Q:1/4=120
K:Em
|:"Em"E2 B2 B2|BA GA B2|"C"E2 G2 G2|"G"DB, A,B, D2|"Em"E2 G2 G2|"D"AG AB de|"B7"B3 A GA|"Em"B2 E4:|
"Am"E2 A2 A2|A4 G2|"G"B2 d2 d2|d4 e2|dB AB de|dB AB dA|"Em"B2 e2 e2|e4 d2|
"G"B2 dB AG|"D"A2 B2 d2|"Bm"F2 GF ED|B,2 D2 D2|"Em"E2 G2 G2|"D"AG AB de|"B7"B3 A GA|"Em"B2 E4|]

